images/dai.svg

<svg width="65" height="65" viewBox="0 0 65 65" fill="none" xmlns="http://www.w3.org/2000/svg">
<path d="M64 32.5C64 49.9116 50.1063 64 33 64C15.8937 64 2 49.9116 2 32.5C2 15.0884 15.8937 1 33 1C50.1063 1 64 15.0884 64 32.5Z" fill="white" stroke="#FFCE45" stroke-width="2" stroke-miterlimit="10"/>
<path d="M32.5 8.9375L55.25 31.6874L32.5 54.4375L9.75 31.6874L32.5 8.9375Z" fill="#FFCE45"/>
<path d="M32.5 39L9.75 31.6029L32.5 8.9375L55.25 31.6029L32.5 39Z" fill="#FEBE44"/>
<path d="M17.875 30.875H28.2244L32.6598 25.7816L37.5881 30.875H47.9375L32.6598 13.8125L17.875 30.875Z" fill="white"/>
<path opacity="0.42" d="M32.5 54.4375V8.9375L55.25 31.6875L32.5 54.4375Z" fill="#D9A547"/>
</svg>

<svg width="65" height="65" fill="none" xmlns="http://www.w3.org/2000/svg"><path d="M64 32.5C64 49.912 50.106 64 33 64S2 49.912 2 32.5 15.894 1 33 1s31 14.088 31 31.5z" fill="#fff" stroke="#FFCE45" stroke-width="2" stroke-miterlimit="10"/><path d="M32.5 8.938l22.75 22.75-22.75 22.75-22.75-22.75L32.5 8.937z" fill="#FFCE45"/><path d="M32.5 39L9.75 31.603 32.5 8.937l22.75 22.666L32.5 39z" fill="#FEBE44"/><path d="M17.875 30.875h10.35l4.435-5.093 4.928 5.093h10.35L32.66 13.812 17.875 30.875z" fill="#fff"/><path opacity=".42" d="M32.5 54.438v-45.5l22.75 22.75-22.75 22.75z" fill="#D9A547"/></svg>
